src/icons/categories/cd.svg

<svg width="32" height="31" viewBox="0 0 32 31" fill="none" xmlns="http://www.w3.org/2000/svg">
<path d="M30.8748 0.676025H0.390327V30.1568H30.8748V0.676025Z" fill="#F0592C"/>
<path d="M30.8562 0.676025H29.0346V30.1568H30.8562V0.676025Z" fill="#DB4C22"/>
<path d="M6.04115 0.676025H4.21952V30.1568H6.04115V0.676025Z" fill="#DB4C22"/>
<path d="M30.8748 30.5285H0.39035C0.185881 30.5285 0 30.3613 0 30.1382V0.676057C0 0.471588 0.167293 0.285706 0.39035 0.285706H30.8748C31.0793 0.285706 31.2652 0.453 31.2652 0.676057V30.1568C31.2466 30.3613 31.0793 30.5285 30.8748 30.5285ZM0.762112 29.7664H30.4845V1.0664H0.762112V29.7664Z" fill="#332247"/>
<path d="M1.98894 0.676025H1.20824V30.1568H1.98894V0.676025Z" fill="#606E76"/>
<path d="M3.38305 0.676025H2.60234V30.1568H3.38305V0.676025Z" fill="#606E76"/>
<path d="M4.23809 30.5285H0.39035C0.185881 30.5285 0 30.3613 0 30.1382V0.676057C0 0.471588 0.167293 0.285706 0.39035 0.285706H4.25668C4.46114 0.285706 4.64703 0.453 4.64703 0.676057V30.1568C4.62844 30.3613 4.46114 30.5285 4.23809 30.5285ZM0.762112 29.7664H3.86633V1.0664H0.762112V29.7664Z" fill="#332247"/>
<path d="M17.3241 4.85837C11.4874 4.85837 6.76607 9.57974 6.76607 15.4164C6.76607 21.2531 11.4874 25.9745 17.3241 25.9745C23.1608 25.9745 27.8822 21.2531 27.8822 15.4164C27.9007 9.57974 23.1608 4.85837 17.3241 4.85837ZM17.3241 17.2752C16.3018 17.2752 15.4653 16.4388 15.4653 15.4164C15.4653 14.3941 16.3018 13.5576 17.3241 13.5576C18.3465 13.5576 19.1829 14.3941 19.1829 15.4164C19.2015 16.4388 18.365 17.2752 17.3241 17.2752Z" fill="#E7EFE7"/>
<path d="M17.3241 11.2899C15.0378 11.2899 13.1976 13.1301 13.1976 15.4164C13.1976 17.7028 15.0378 19.543 17.3241 19.543C19.6105 19.543 21.4507 17.7028 21.4507 15.4164C21.4507 13.1301 19.6105 11.2899 17.3241 11.2899ZM17.3241 17.2753C16.3018 17.2753 15.4653 16.4388 15.4653 15.4164C15.4653 14.3941 16.3018 13.5576 17.3241 13.5576C18.3465 13.5576 19.183 14.3941 19.183 15.4164C19.2015 16.4388 18.3651 17.2753 17.3241 17.2753Z" fill="#DBE3DC"/>
<path d="M21.0975 5.54614L17.9933 13.6691C18.6811 13.9294 19.1643 14.58 19.2015 15.3607L26.7297 10.5835C25.5587 8.29718 23.5511 6.47555 21.0975 5.54614Z" fill="#F8F8ED"/>
<path d="M18.8112 11.5686L18.0119 13.6877C18.1048 13.7249 18.1792 13.762 18.2535 13.7992C18.3279 13.8364 18.4022 13.8922 18.4766 13.9479C18.5509 14.0037 18.6067 14.0594 18.681 14.1338C18.7368 14.1896 18.7926 14.2639 18.8483 14.3383C18.9041 14.4126 18.9413 14.487 18.997 14.5613C19.1272 14.803 19.2015 15.0818 19.2015 15.3606L21.2462 14.078C20.8373 12.9256 19.945 11.9962 18.8112 11.5686Z" fill="#E7EFE7"/>
<path d="M15.6141 16.1599L7.49106 19.2642C8.17882 21.03 9.34987 22.5728 10.8183 23.7253L16.4319 17.0522C16.0788 16.8477 15.7814 16.5317 15.6141 16.1599Z" fill="#F8F8ED"/>
<path d="M16.1902 16.8849C16.1716 16.8849 16.1716 16.8849 16.1902 16.8849C16.1345 16.8477 16.0973 16.8105 16.0787 16.792C16.0043 16.7176 15.9486 16.6433 15.8742 16.5689C15.8371 16.5317 15.8185 16.4946 15.7813 16.4574C15.7255 16.3644 15.6698 16.2901 15.6326 16.1971L13.5135 16.9964C13.8109 17.74 14.3314 18.3719 14.9634 18.8181L16.4319 17.0708C16.3389 16.9964 16.2646 16.9407 16.1902 16.8849Z" fill="#E7EFE7"/>
<path d="M17.3241 26.3648C11.283 26.3648 6.37572 21.4576 6.37572 15.4164C6.37572 9.37531 11.283 4.46805 17.3241 4.46805C23.3652 4.46805 28.2725 9.37531 28.2725 15.4164C28.2725 21.4576 23.3652 26.3648 17.3241 26.3648ZM17.3241 5.23016C11.7105 5.23016 7.13783 9.80283 7.13783 15.4164C7.13783 21.03 11.7105 25.6027 17.3241 25.6027C22.9377 25.6027 27.5104 21.03 27.5104 15.4164C27.5104 9.80283 22.9563 5.23016 17.3241 5.23016ZM17.3241 17.6656C16.0787 17.6656 15.075 16.6618 15.075 15.4164C15.075 14.171 16.0787 13.1673 17.3241 13.1673C18.5695 13.1673 19.5733 14.171 19.5733 15.4164C19.5733 16.6618 18.5695 17.6656 17.3241 17.6656ZM17.3241 13.9294C16.5062 13.9294 15.8371 14.5986 15.8371 15.4164C15.8371 16.2343 16.5062 16.9035 17.3241 16.9035C18.142 16.9035 18.8112 16.2343 18.8112 15.4164C18.8112 14.5986 18.1606 13.9294 17.3241 13.9294Z" fill="#332247"/>
</svg>

<svg viewBox="0 0 32 31" fill="none" xmlns="http://www.w3.org/2000/svg"><path d="M30.875.676H.39v29.48h30.485V.677z" fill="#F0592C"/><path d="M30.856.676h-1.821v29.48h1.821V.677zM6.041.676H4.22v29.48H6.04V.677z" fill="#DB4C22"/><path d="M30.875 30.529H.39a.393.393 0 01-.39-.39V.675c0-.204.167-.39.39-.39h30.485c.204 0 .39.167.39.39v29.48a.402.402 0 01-.39.373zM.762 29.765h29.723v-28.7H.762v28.7z" fill="#332247"/><path d="M1.989.676h-.78v29.48h.78V.677zM3.383.676h-.78v29.48h.78V.677z" fill="#606E76"/><path d="M4.238 30.529H.39a.393.393 0 01-.39-.39V.675c0-.204.167-.39.39-.39h3.867c.204 0 .39.167.39.39v29.48a.406.406 0 01-.409.373zm-3.476-.763h3.104v-28.7H.762v28.7z" fill="#332247"/><path d="M17.324 4.858A10.55 10.55 0 006.766 15.416a10.55 10.55 0 0010.558 10.558 10.55 10.55 0 0010.558-10.558c.019-5.836-4.721-10.558-10.558-10.558zm0 12.417a1.864 1.864 0 01-1.859-1.859c0-1.022.837-1.858 1.86-1.858 1.021 0 1.858.836 1.858 1.858.018 1.023-.818 1.86-1.859 1.86z" fill="#E7EFE7"/><path d="M17.324 11.29a4.117 4.117 0 00-4.126 4.126 4.117 4.117 0 004.126 4.127 4.117 4.117 0 004.127-4.127 4.117 4.117 0 00-4.127-4.126zm0 5.985a1.864 1.864 0 01-1.859-1.859c0-1.022.837-1.858 1.86-1.858 1.021 0 1.858.836 1.858 1.858.018 1.023-.818 1.86-1.859 1.86z" fill="#DBE3DC"/><path d="M21.098 5.546l-3.105 8.123c.688.26 1.171.911 1.209 1.692l7.528-4.777a10.547 10.547 0 00-5.633-5.038z" fill="#F8F8ED"/><path d="M18.811 11.569l-.8 2.119c.094.037.168.074.242.111a1.85 1.85 0 01.595.54c.056.074.093.148.149.222.13.242.204.52.204.8l2.045-1.283a4.168 4.168 0 00-2.435-2.51z" fill="#E7EFE7"/><path d="M15.614 16.16l-8.123 3.104a10.588 10.588 0 003.327 4.461l5.614-6.673a2 2 0 01-.818-.892z" fill="#F8F8ED"/><path d="M16.19 16.885c-.018 0-.018 0 0 0-.056-.037-.093-.075-.111-.093-.075-.074-.13-.149-.205-.223-.037-.037-.056-.074-.093-.112-.056-.093-.111-.167-.148-.26l-2.12.8a4.126 4.126 0 001.45 1.821l1.469-1.747c-.093-.075-.167-.13-.242-.186z" fill="#E7EFE7"/><path d="M17.324 26.365c-6.041 0-10.948-4.907-10.948-10.949 0-6.04 4.907-10.948 10.948-10.948s10.948 4.907 10.948 10.948c0 6.042-4.907 10.949-10.948 10.949zm0-21.135c-5.614 0-10.186 4.573-10.186 10.186 0 5.614 4.572 10.187 10.186 10.187S27.51 21.03 27.51 15.416c0-5.613-4.554-10.186-10.186-10.186zm0 12.436a2.245 2.245 0 01-2.249-2.25 2.245 2.245 0 012.25-2.249 2.245 2.245 0 012.248 2.25 2.245 2.245 0 01-2.249 2.249zm0-3.737c-.818 0-1.487.67-1.487 1.487 0 .818.67 1.488 1.487 1.488.818 0 1.487-.67 1.487-1.488a1.48 1.48 0 00-1.487-1.487z" fill="#332247"/></svg>
